app/assets/images/visual-editor/icons/bullet-list-rtl.svg

<?xml version="1.0" encoding="utf-8"?>
<svg xmlns="http://www.w3.org/2000/svg" width="24" height="24" viewBox="0 0 24 24">
    <g id="bullet-list-rtl" opacity=".75">
        <path id="bottom_dot_1_" d="M19 10h1c.552 0 1 .447 1 1v1c0 .553-.448 1-1 1h-1c-.552 0-1-.447-1-1v-1c0-.553.448-1 1-1z"/>
        <path id="middle_dot_1_" d="M19 17h1c.552 0 1 .447 1 1v1c0 .553-.448 1-1 1h-1c-.552 0-1-.447-1-1v-1c0-.553.448-1 1-1z"/>
        <path id="top_dot_1_" d="M19 3h1c.552 0 1 .447 1 1v1c0 .553-.448 1-1 1h-1c-.552 0-1-.447-1-1v-1c0-.553.448-1 1-1z"/>
        <path id="bottom_line_7_" d="M4 17h11c.552 0 1 .447 1 1v1c0 .553-.448 1-1 1h-11c-.552 0-1-.447-1-1v-1c0-.553.448-1 1-1z"/>
        <path id="middle_line_7_" d="M4 10h11c.552 0 1 .447 1 1v1c0 .553-.448 1-1 1h-11c-.552 0-1-.447-1-1v-1c0-.553.448-1 1-1z"/>
        <path id="top_line_7_" d="M4 3h11c.552 0 1 .447 1 1v1c0 .553-.448 1-1 1h-11c-.552 0-1-.447-1-1v-1c0-.553.448-1 1-1z"/>
    </g>
</svg>

<?xml version="1.0" encoding="iso-8859-1"?>
<!DOCTYPE svg PUBLIC "-//W3C//DTD SVG 1.1//EN" "http://www.w3.org/Graphics/SVG/1.1/DTD/svg11.dtd">
<svg version="1.1" xmlns="http://www.w3.org/2000/svg" xmlns:xlink="http://www.w3.org/1999/xlink" x="0px" y="0px" width="24px"
	 height="24px" viewBox="0 0 24 24" style="enable-background:new 0 0 24 24;" xml:space="preserve">
<g id="bullet-list-rtl" style="opacity:0.75;">
	<path id="bottom_dot_1_" d="M19,10h1c0.552,0,1,0.447,1,1v1c0,0.553-0.448,1-1,1h-1c-0.552,0-1-0.447-1-1v-1 C18,10.447,18.448,10,19,10z"/>
	<path id="middle_dot_1_" d="M19,17h1c0.552,0,1,0.447,1,1v1c0,0.553-0.448,1-1,1h-1c-0.552,0-1-0.447-1-1v-1 C18,17.447,18.448,17,19,17z"/>
	<path id="top_dot_1_" d="M19,3h1c0.552,0,1,0.447,1,1v1c0,0.553-0.448,1-1,1h-1c-0.552,0-1-0.447-1-1V4C18,3.447,18.448,3,19,3z"/>
	<path id="bottom_line_7_" d="M4,17h11c0.552,0,1,0.447,1,1v1c0,0.553-0.448,1-1,1H4c-0.552,0-1-0.447-1-1v-1 C3,17.447,3.448,17,4,17z"/>
	<path id="middle_line_7_" d="M4,10h11c0.552,0,1,0.447,1,1v1c0,0.553-0.448,1-1,1H4c-0.552,0-1-0.447-1-1v-1 C3,10.447,3.448,10,4,10z"/>
	<path id="top_line_7_" d="M4,3h11c0.552,0,1,0.447,1,1v1c0,0.553-0.448,1-1,1H4C3.448,6,3,5.553,3,5V4C3,3.447,3.448,3,4,3z"/>
</g>
</svg>
